X:102
%%musicspace -10
%%titlespace -15
T:The Tenpenny Bit
M:6/8
L:1/8
K:Ador
e | "Am"eAA eAA | "G"BAB GBd | "Am"eAA eAA | "G"def gfg |
"Am"eAA eAA | "G"BAB GBd | "Em"edB gBB | "Am"BAA A2 :|
|: B | "Am"A2a aga | "Em"bge gfg | "Am"e2a aga | "Em"bge g3 |
"Am"e2a aga | "Em"bge gfg | edB gBB | "Am"BAA A2 :|

